digitransit-component/packages/digitransit-component-icon/src/assets/search-ferry-default.svg

<svg xmlns="http://www.w3.org/2000/svg" width="24" height="24" fill="none" viewBox="0 0 28 28">
 <path fill="#007a97" d="M0 3.5A3.5 3.5 0 0 1 3.5 0h21A3.5 3.5 0 0 1 28 3.5v21a3.5 3.5 0 0 1-3.5 3.5h-21A3.5 3.5 0 0 1 0 24.5z"/>
 <path fill="#fff" d="M22.435 15.925s-2.8-.735-4.69-1.155c-1.645-.35-3.675-.595-3.815-.595s-2.135.245-3.815.595c-1.89.42-4.69 1.155-4.69 1.155l.77 6.65H21.7zm-12.32-2.485c1.68-.35 3.71-.595 3.815-.63.105.035 2.135.28 3.815.63 1.295.28 2.03.455 2.975.7V9.275c0-.63.175-1.47-1.47-1.47h-3.045V3.22c0-.245-.21-.455-.455-.49h-3.64c-.245.035-.42.245-.455.49v4.585H8.61c-1.645 0-1.47.84-1.47 1.47v4.865zm-5.88 10.22a.665.665 0 1 0 0 1.33h19.53c.385 0 .7-.28.7-.665s-.315-.665-.7-.665zm6.23-14.595c.735 0 1.295.56 1.295 1.295a1.27 1.27 0 0 1-1.295 1.295A1.27 1.27 0 0 1 9.17 10.36c0-.735.56-1.295 1.295-1.295m3.465 0c.735 0 1.295.56 1.295 1.295a1.27 1.27 0 0 1-1.295 1.295c-.7 0-1.295-.56-1.295-1.295s.595-1.295 1.295-1.295m3.465 0c.735 0 1.295.56 1.295 1.295a1.27 1.27 0 0 1-1.295 1.295c-.7 0-1.295-.56-1.295-1.295s.595-1.295 1.295-1.295"/>
</svg>

<svg width="24" height="24" viewBox="0 0 28 28" fill="none" xmlns="http://www.w3.org/2000/svg">
    <path d="M0 3.5C0 1.567 1.567 0 3.5 0H24.5C26.433 0 28 1.567 28 3.5V24.5C28 26.433 26.433 28 24.5 28H3.5C1.567 28 0 26.433 0 24.5V3.5Z" fill="#007A97"/>
    <path d="M22.435 15.925C22.435 15.925 19.635 15.19 17.745 14.77C16.1 14.42 14.07 14.175 13.93 14.175C13.79 14.175 11.795 14.42 10.115 14.77C8.22501 15.19 5.42501 15.925 5.42501 15.925L6.19501 22.575H21.7L22.435 15.925ZM10.115 13.44C11.795 13.09 13.825 12.845 13.93 12.81C14.035 12.845 16.065 13.09 17.745 13.44C19.04 13.72 19.775 13.895 20.72 14.14V9.275C20.72 8.645 20.895 7.805 19.25 7.805H16.205V3.22C16.205 2.975 15.995 2.765 15.75 2.73H12.11C11.865 2.765 11.69 2.975 11.655 3.22V7.805H8.61001C6.96501 7.805 7.14001 8.645 7.14001 9.275V14.14L10.115 13.44ZM4.23501 23.66C3.88501 23.66 3.57001 23.94 3.57001 24.325C3.57001 24.71 3.88501 24.99 4.23501 24.99H23.765C24.15 24.99 24.465 24.71 24.465 24.325C24.465 23.94 24.15 23.66 23.765 23.66H4.23501ZM10.465 9.065C11.2 9.065 11.76 9.625 11.76 10.36C11.76 11.095 11.2 11.655 10.465 11.655C9.73001 11.655 9.17001 11.095 9.17001 10.36C9.17001 9.625 9.73001 9.065 10.465 9.065ZM13.93 9.065C14.665 9.065 15.225 9.625 15.225 10.36C15.225 11.095 14.665 11.655 13.93 11.655C13.23 11.655 12.635 11.095 12.635 10.36C12.635 9.625 13.23 9.065 13.93 9.065ZM17.395 9.065C18.13 9.065 18.69 9.625 18.69 10.36C18.69 11.095 18.13 11.655 17.395 11.655C16.695 11.655 16.1 11.095 16.1 10.36C16.1 9.625 16.695 9.065 17.395 9.065Z" fill="white"/>
</svg>
